static/img/kroki/9989d85caa70e84118f571d13ba09502.svg

<?xml version="1.0" encoding="us-ascii" standalone="no"?><svg xmlns="http://www.w3.org/2000/svg" xmlns:xlink="http://www.w3.org/1999/xlink" contentStyleType="text/css" height="252px" preserveAspectRatio="none" style="width:444px;height:252px;" version="1.1" viewBox="0 0 444 252" width="444px" zoomAndPan="magnify"><defs/><g><!--class azure_machine_learning_feature--><g id="elem_azure_machine_learning_feature"><rect codeLine="23" fill="#3D176E" height="39.7891" id="azure_machine_learning_feature" rx="2.5" ry="2.5" style="stroke:#000D19;stroke-width:0.5;" width="317" x="63.5" y="206.58"/><ellipse cx="78.5" cy="226.4745" fill="#ADD1B2" rx="11" ry="11" style="stroke:#181818;stroke-width:1.0;"/><path d="M81.4688,232.1152 Q80.8906,232.412 80.25,232.5527 Q79.6094,232.7089 78.9063,232.7089 Q76.4063,232.7089 75.0781,231.0683 Q73.7656,229.412 73.7656,226.287 Q73.7656,223.162 75.0781,221.5058 Q76.4063,219.8495 78.9063,219.8495 Q79.6094,219.8495 80.25,220.0058 Q80.9063,220.162 81.4688,220.4589 L81.4688,223.1777 Q80.8438,222.5995 80.25,222.3339 Q79.6563,222.0527 79.0313,222.0527 Q77.6875,222.0527 77,223.1308 Q76.3125,224.1933 76.3125,226.287 Q76.3125,228.3808 77,229.4589 Q77.6875,230.5214 79.0313,230.5214 Q79.6563,230.5214 80.25,230.2558 Q80.8438,229.9745 81.4688,229.3964 L81.4688,232.1152 Z " fill="#000000"/><text fill="#D9B8FF" font-family="Helvetica" font-size="17" lengthAdjust="spacing" textLength="275" x="97.5" y="232.3598">azure_machine_learning_feature</text></g><!--class azure_machine_learning_featureset_container--><g id="elem_azure_machine_learning_featureset_container"><rect codeLine="26" fill="#3D176E" height="39.7891" id="azure_machine_learning_featureset_container" rx="2.5" ry="2.5" style="stroke:#000D19;stroke-width:0.5;" width="430" x="7" y="7"/><ellipse cx="22" cy="26.8945" fill="#ADD1B2" rx="11" ry="11" style="stroke:#181818;stroke-width:1.0;"/><path d="M24.9688,32.5352 Q24.3906,32.832 23.75,32.9727 Q23.1094,33.1289 22.4063,33.1289 Q19.9063,33.1289 18.5781,31.4883 Q17.2656,29.832 17.2656,26.707 Q17.2656,23.582 18.5781,21.9258 Q19.9063,20.2695 22.4063,20.2695 Q23.1094,20.2695 23.75,20.4258 Q24.4063,20.582 24.9688,20.8789 L24.9688,23.5977 Q24.3438,23.0195 23.75,22.7539 Q23.1563,22.4727 22.5313,22.4727 Q21.1875,22.4727 20.5,23.5508 Q19.8125,24.6133 19.8125,26.707 Q19.8125,28.8008 20.5,29.8789 Q21.1875,30.9414 22.5313,30.9414 Q23.1563,30.9414 23.75,30.6758 Q24.3438,30.3945 24.9688,29.8164 L24.9688,32.5352 Z " fill="#000000"/><text fill="#D9B8FF" font-family="Helvetica" font-size="17" lengthAdjust="spacing" textLength="388" x="41" y="32.7798">azure_machine_learning_featureset_container</text></g><!--class azure_machine_learning_featureset_version--><g id="elem_azure_machine_learning_featureset_version"><rect codeLine="29" fill="#3D176E" height="39.7891" id="azure_machine_learning_featureset_version" rx="2.5" ry="2.5" style="stroke:#000D19;stroke-width:0.5;" width="412" x="16" y="106.79"/><ellipse cx="31" cy="126.6845" fill="#ADD1B2" rx="11" ry="11" style="stroke:#181818;stroke-width:1.0;"/><path d="M33.9688,132.3252 Q33.3906,132.622 32.75,132.7627 Q32.1094,132.9189 31.4063,132.9189 Q28.9063,132.9189 27.5781,131.2783 Q26.2656,129.622 26.2656,126.497 Q26.2656,123.372 27.5781,121.7158 Q28.9063,120.0595 31.4063,120.0595 Q32.1094,120.0595 32.75,120.2158 Q33.4063,120.372 33.9688,120.6689 L33.9688,123.3877 Q33.3438,122.8095 32.75,122.5439 Q32.1563,122.2627 31.5313,122.2627 Q30.1875,122.2627 29.5,123.3408 Q28.8125,124.4033 28.8125,126.497 Q28.8125,128.5908 29.5,129.6689 Q30.1875,130.7314 31.5313,130.7314 Q32.1563,130.7314 32.75,130.4658 Q33.3438,130.1845 33.9688,129.6064 L33.9688,132.3252 Z " fill="#000000"/><text fill="#D9B8FF" font-family="Helvetica" font-size="17" lengthAdjust="spacing" textLength="370" x="50" y="132.5698">azure_machine_learning_featureset_version</text></g><!--link azure_machine_learning_featureset_container to azure_machine_learning_featureset_version--><g id="link_azure_machine_learning_featureset_container_azure_machine_learning_featureset_version"><path codeLine="32" d="M222,47.22 C222,64.36 222,83.27 222,100.41 " fill="none" id="azure_machine_learning_featureset_container-to-azure_machine_learning_featureset_version" style="stroke:#1A83AF;stroke-width:2.0;"/><polygon fill="#1A83AF" points="222,106.41,226,97.41,222,101.41,218,97.41,222,106.41" style="stroke:#1A83AF;stroke-width:2.0;"/></g><!--link azure_machine_learning_featureset_version to azure_machine_learning_feature--><g id="link_azure_machine_learning_featureset_version_azure_machine_learning_feature"><path codeLine="33" d="M222,147.01 C222,164.15 222,183.06 222,200.2 " fill="none" id="azure_machine_learning_featureset_version-to-azure_machine_learning_feature" style="stroke:#1A83AF;stroke-width:2.0;"/><polygon fill="#1A83AF" points="222,206.2,226,197.2,222,201.2,218,197.2,222,206.2" style="stroke:#1A83AF;stroke-width:2.0;"/></g><!--SRC=[bPDFIyD04CNl-HGBFHSIYxQz235Gz5B4UXC9q-niipJPBREJbbRyxYPMPKtwzxhlD_FU6zXSInHOhdWhIYpdI2vmIsrMG52AcCXk4bjO4ZsbG0s6RN5Y3Py5fb2YUCHYZQmpQ1ElkSwM1fqJDvxq0DboGROoSh-U2Ooh9JJiKKa1piNCfESLenT6ZkSZfTfaUsbl8AFX7NOmInBf1md3K4RZDdBMwcJlFsAcToWY_sXJozY9sR7ufawcR0WlPAVehtuqupD8gSr2t7flB_jCP93-lSzoa7RJq0eAvziuHaBBsnKcdLOu7aarF0W_7OE3h3cTW5r5c9QGvTfWMY2GgTrJXS2r83w2uFCYqY6dMNq5q4sbgyRMzLVHrko7hd7fl_MYU3I89-_z-yjzWiiJNM4GV040]--></g></svg>

<svg xmlns="http://www.w3.org/2000/svg" width="444" height="252" viewBox="0 0 444 252"><rect width="317" height="39.789" x="63.5" y="206.58" fill="#3D176E" rx="2.5" ry="2.5" style="stroke:#000d19;stroke-width:.5"/><circle cx="78.5" cy="226.475" r="11" fill="#ADD1B2" style="stroke:#181818;stroke-width:1"/><path d="M81.469 232.115q-.578.297-1.219.438-.64.156-1.344.156-2.5 0-3.828-1.64-1.312-1.657-1.312-4.782t1.312-4.781q1.328-1.656 3.828-1.656.703 0 1.344.156.656.156 1.219.453v2.719q-.625-.578-1.219-.844-.594-.281-1.219-.281-1.344 0-2.031 1.078-.687 1.062-.687 3.156t.687 3.172q.688 1.062 2.031 1.062.625 0 1.219-.265.594-.281 1.219-.86z"/><text x="97.5" y="232.36" fill="#D9B8FF" font-family="Helvetica" font-size="17" textLength="275">azure_machine_learning_feature</text><rect width="430" height="39.789" x="7" y="7" fill="#3D176E" rx="2.5" ry="2.5" style="stroke:#000d19;stroke-width:.5"/><circle cx="22" cy="26.895" r="11" fill="#ADD1B2" style="stroke:#181818;stroke-width:1"/><path d="M24.969 32.535q-.578.297-1.219.438-.64.156-1.344.156-2.5 0-3.828-1.64-1.312-1.657-1.312-4.782t1.312-4.781q1.328-1.656 3.828-1.656.703 0 1.344.156.656.156 1.219.453v2.719q-.625-.578-1.219-.844-.594-.281-1.219-.281-1.343 0-2.031 1.078-.687 1.062-.687 3.156t.687 3.172q.688 1.062 2.031 1.062.625 0 1.219-.265.594-.281 1.219-.86z"/><text x="41" y="32.78" fill="#D9B8FF" font-family="Helvetica" font-size="17" textLength="388">azure_machine_learning_featureset_container</text><rect width="412" height="39.789" x="16" y="106.79" fill="#3D176E" rx="2.5" ry="2.5" style="stroke:#000d19;stroke-width:.5"/><circle cx="31" cy="126.684" r="11" fill="#ADD1B2" style="stroke:#181818;stroke-width:1"/><path d="M33.969 132.325q-.578.297-1.219.438-.64.156-1.344.156-2.5 0-3.828-1.64-1.312-1.657-1.312-4.782t1.312-4.781q1.328-1.656 3.828-1.656.703 0 1.344.156.656.156 1.219.453v2.719q-.625-.579-1.219-.844-.594-.281-1.219-.281-1.343 0-2.031 1.078-.687 1.062-.687 3.156t.687 3.172q.688 1.062 2.031 1.062.625 0 1.219-.265.594-.281 1.219-.86z"/><text x="50" y="132.57" fill="#D9B8FF" font-family="Helvetica" font-size="17" textLength="370">azure_machine_learning_featureset_version</text><path fill="none" d="M222 47.22v53.19" style="stroke:#1a83af;stroke-width:2"/><path fill="#1A83AF" d="m222 106.41 4-9-4 4-4-4z" style="stroke:#1a83af;stroke-width:2"/><path fill="none" d="M222 147.01v53.19" style="stroke:#1a83af;stroke-width:2"/><path fill="#1A83AF" d="m222 206.2 4-9-4 4-4-4z" style="stroke:#1a83af;stroke-width:2"/></svg>
